X: 13
T: Music In The Glen
Z: UPipes & harp
S: https://thesession.org/tunes/303#setting47936
R: reel
M: 4/4
L: 1/8
K: Gmaj
|:G2BG EGDc|BDGB AGAB|cdec B2 dB|BAAG AGEF|
GABG EGDc|BDGB AGAB|cdef g2ge|1 dcBA G2D2:|2 dcBA G2GA||
|:BGdG eGdG|BGdB cAFA|BGdG edef|gedB AGEG|
BGdG edef|g2fg afdf|gefd egdB|1 cABG AGEG:|2 cABG AGEF||

